X: 1631
T: Sabah Olsun Ben Şu Yerden...
C: İbrahim Ağa
O: Turkey
F: http://compmusic.upf.edu/node/140
N: mahur--sarki--evsat--sabah_olsun--ibrahim_aga
N: makam= mahur
N: form= sarki
N: usul= evsat = 26/8
M: 26/8
L: 1/16
K: C ^9/8f   
Q: 1/4=120
%%MIDI tuningsystem comma53
G4 g2 gf ef g4 gc' ba a3/2g/ fg fg ag  | \
w:  SAZ Sa bah  *  *  *  ol *  *  *  *  sun   | 
g4 d2 g4 g3/2f/ ef ef ga ag ^1/4fe d2 e2  | 
w:  *  ben  şu  yer *  *  *  *  *  *  *  den   | 
d2 d2 d2 ed ef g4 g2 g2 c'4 c'2 c'b  | \
w:  *  *  gi de *  *  *  yim  *  a man    | 
ba g2 a2 ac' ba a3/2g/ fg fa gf fe ef g4  | 
w:  *  *  *  gi de *  *  *  yim  *  *  *  *  *  *  *  ca *  *  *  nım    | 
z4 d2 g4 g3/2f/ ef ef ga ag =fe d2 e2  | \
w:  Ga rip  bül *  *  *  *  *  *  *  bül   | 
d4 a2 g2 =f2 e2 dc Be dc B2 BA G4  | 
w:  *  gi bi  *  fer *  *  *  *  *  *  yad   | 
A2 Ac BA G3/2F/ EF G4 G2 G2 c4 c2 cB  | \
w:  e *  *  *  *  de *  *  *  yim  *  a man    | 
BA G2 A2 Ac BA A3/2G/ FG FA GF FE EF G4  | 
w:  *  *  *  e de *  *  *  yim  *  *  *  *  *  *  *  ca *  *  *  nım    | 
G4 g2 gf ef g4 gc' ba a3/2g/ fg fg ag  | \
w:  SAZ Sa bah  *  *  *  ol *  *  *  *  sun   | 
g4 d2 g4 g3/2f/ ef ef ga ag ^1/4fe d2 e2  | 
w:  *  ben  şu  yer *  *  *  *  *  *  *  den   | 
d2 d2 d2 ed ef g4 g2 g2 c'4 c'2 c'b  | \
w:  *  *  gi de *  *  *  yim  *  a man    | 
ba g2 a2 ac' ba a3/2g/ fg fa gf fe ef g4  | 
w:  *  *  *  gi de *  *  *  yim  *  *  *  *  *  *  *  ca *  *  *  nım    | 
z4 d2 g4 g3/2f/ ef ef ga ag =fe d2 e2  | \
w:  Ga rip  bül *  *  *  *  *  *  *  bül   | 
d4 a2 g2 =f2 e2 dc Be dc B2 BA G4  | 
w:  *  gi bi  *  fer *  *  *  *  *  *  yad   | 
A2 Ac BA G3/2F/ EF G4 G2 G2 c4 c2 cB  | \
w:  e *  *  *  *  de *  *  *  yim  *  a man    | 
BA G2 A2 Ac BA A3/2G/ FG FA GF FE EF G4  | 
w:  *  *  *  e de *  *  *  yim  *  *  *  *  *  *  *  ca *  *  *  nım    | 
G2 G2 d2 g4 g3/2f/ ef ef ga ag =fe d2 e2  | \
w:  *  *  Ben  kı ya *  *  *  *  *  *  *  mam   | 
d4 a2 g2 =f2 e2 dc Be dc B2 BA G4  | 
w:  *  sen  *  u yan *  *  *  *  *  *  dır   | 
A2 Ac BA G3/2F/ EF G4 G2 G2 c4 c2 cB  | \
w:  e *  *  *  *  şi *  *  *  mi  *  a man    | 
BA G2 A2 Ac BA A3/2G/ FG FA GF FE EF G4  | 
w:  *  *  *  e şi *  *  *  mi  *  *  *  *  *  *  *  ca *  *  *  nım    | 
G2 G2 d2 g4 g3/2f/ ef ef ga ag =fe d2 e2  | \
w:  *  *  Ben  kı ya *  *  *  *  *  *  *  mam   | 
d4 a2 g2 =f2 e2 dc Be dc B2 BA G4  | 
w:  *  sen  *  u yan *  *  *  *  *  *  dır   | 
A2 Ac BA G3/2F/ EF G4 G2 G2 c4 c2 cB  | \
w:  e *  *  *  *  şi *  *  *  mi  *  a man    | 
BA G2 A2 Ac BA A3/2G/ FG FA GF FE EF G4  | 
w:  *  *  *  e şi *  *  *  mi  *  *  *  *  *  *  *  ca *  *  *  nım    | 
G4 g2 gf ef g4 gc' ba a3/2g/ fg fg ag  | \
w:  SAZ Sa bah  *  *  *  ol *  *  *  *  sun   | 
g4 d2 g4 g3/2f/ ef ef ga ag ^1/4fe d2 e2  | 
w:  *  ben  şu  yer *  *  *  *  *  *  *  den   | 
d2 d2 d2 ed ef g4 g2 g2 c'4 c'2 c'b  | \
w:  *  *  gi de *  *  *  yim  *  a man    | 
ba g2 a2 ac' ba a3/2g/ fg fa gf fe ef g4  | 
w:  *  *  *  gi de *  *  *  yim  *  *  *  *  *  *  *  ca *  *  *  nım    | 
z4 d2 g4 g3/2f/ ef ef ga ag =fe d2 e2  | \
w:  Ga rip  bül *  *  *  *  *  *  *  bül   | 
d4 a2 g2 =f2 e2 dc Be dc B2 BA G4  | 
w:  *  gi bi  *  fer *  *  *  *  *  *  yad   | 
A2 Ac BA G3/2F/ EF G4 G2 G2 c4 c2 cB  | \
w:  e *  *  *  *  de *  *  *  yim  *  a man    | 
BA G2 A2 Ac BA A3/2G/ FG FA GF FE EF G4  | 
w:  *  *  *  e de *  *  *  yim  *  *  *  *  *  *  *  ca *  *  *  nım    | 
G4 g2 gf ef g4 gc' ba a3/2g/ fg fg ag  | \
w:  SAZ Sa bah  *  *  *  ol *  *  *  *  sun   | 
g4 d2 g4 g3/2f/ ef ef ga ag ^1/4fe d2 e2  | 
w:  *  ben  şu  yer *  *  *  *  *  *  *  den   | 
d2 d2 d2 ed ef g4 g2 g2 c'4 c'2 c'b  | \
w:  *  *  gi de *  *  *  yim  *  a man    | 
ba g2 a2 ac' ba a3/2g/ fg fa gf fe ef g4  | 
w:  *  *  *  gi de *  *  *  yim  *  *  *  *  *  *  *  ca *  *  *  nım    | 
z4 d2 g4 g3/2f/ ef ef ga ag =fe d2 e2  | \
w:  Ga rip  bül *  *  *  *  *  *  *  bül   | 
d4 a2 g2 =f2 e2 dc Be dc B2 BA G4  | 
w:  *  gi bi  *  fer *  *  *  *  *  *  yad   | 
A2 Ac BA G3/2F/ EF G4 G2 G2 c4 c2 cB  | \
w:  e *  *  *  *  de *  *  *  yim  *  a man    | 
BA G2 A2 Ac BA A3/2G/ FG FA GF FE EF G4  | 
w:  *  *  *  e de *  *  *  yim  *  *  *  *  *  *  *  ca *  *  *  nım    | 
G2 G2 d2 g4 g3/2f/ ef ef ga ag =fe d2 e2  | \
w:  *  *  Ben  kı ya *  *  *  *  *  *  *  mam   | 
d4 a2 g2 =f2 e2 dc Be dc B2 BA G4  | 
w:  *  sen  *  u yan *  *  *  *  *  *  dır   | 
A2 Ac BA G3/2F/ EF G4 G2 G2 c4 c2 cB  | \
w:  e *  *  *  *  şi *  *  *  mi  *  a man    | 
BA G2 A2 Ac BA A3/2G/ FG FA GF FE EF G4  | 
w:  *  *  *  e şi *  *  *  mi  *  *  *  *  *  *  *  ca *  *  *  nım    | 
G2 G2 d2 g4 g3/2f/ ef ef ga ag =fe d2 e2  | \
w:  *  *  Ben  kı ya *  *  *  *  *  *  *  mam   | 
d4 a2 g2 =f2 e2 dc Be dc B2 BA G4  | 
w:  *  sen  *  u yan *  *  *  *  *  *  dır   | 
A2 Ac BA G3/2F/ EF G4 G2 G2 c4 c2 cB  | \
w:  e *  *  *  *  şi *  *  *  mi  *  a man    | 
BA G2 A2 Ac BA A3/2G/ FG FA GF FE EF G4  | 
w:  *  *  *  e şi *  *  *  mi  *  *  *  *  *  *  *  ca *  *  *  nım    | 
|


